X:1
T: Duncan McMartin's Farewell to Edinburgh
C:
R:Reel
Q: 232
K:D
M:4/4
L:1/8
A,|D2 DE FD FA|Bd BA FE DB,|D2 DE FD FA|GF ED E3A,|
D2 DE FD FA|BA Bc d2 B2|Ad BA FE DF|E2 EF D3:|
|:A|de fe dc BA|Bc dB A2 F2|de fa gf ed|e2 ed c2 A2|
de fe dc BA|Bc dB A2 F2|DE FA df ed|cA fe d3:|
